public/img/old-svg/mic.svg

<svg width="20" height="20" viewBox="0 0 20 20" fill="none" xmlns="http://www.w3.org/2000/svg">
<path d="M17.2281 8.26732H17.1786V7.05445C17.1786 3.15839 14.0202 0 10.1241 0C6.228 0 3.06965 3.15839 3.06965 7.05445V8.26732H2.77264C1.68352 8.26732 0.841952 9.23265 0.841952 10.3465V13.4406C0.81452 14.5202 1.66751 15.4176 2.74711 15.4451C2.75563 15.4453 2.76412 15.4454 2.77264 15.4455H4.60432C4.86376 15.4334 5.06421 15.2131 5.05199 14.9537C5.05156 14.9443 5.05085 14.935 5.04986 14.9257V8.86135C5.04986 8.56434 4.8766 8.26728 4.60432 8.26728H4.05976V7.05441C4.05976 3.70518 6.77488 0.990053 10.1241 0.990053C13.4733 0.990053 16.1885 3.70518 16.1885 7.05441V8.26728H15.6439C15.3716 8.26728 15.1984 8.56429 15.1984 8.86135V14.9257C15.1707 15.184 15.3577 15.4157 15.616 15.4433C15.6252 15.4443 15.6346 15.4451 15.6439 15.4455H16.2132L16.1637 15.5197C15.4209 16.5068 14.2555 17.085 13.0201 17.0791C12.7497 15.7531 11.4554 14.8973 10.1294 15.1678C8.99538 15.399 8.17778 16.3921 8.16864 17.5494C8.18219 18.9068 9.28647 20 10.6439 19.9999C11.3158 19.989 11.9563 19.7133 12.4261 19.2326C12.743 18.908 12.9506 18.4927 13.0201 18.0444C14.5671 18.0503 16.026 17.3254 16.9557 16.089L17.4261 15.3959C18.4904 15.3217 19.1587 14.6534 19.1587 13.688V10.594C19.1588 9.52971 18.3667 8.26732 17.2281 8.26732ZM4.05976 14.4554H2.77264C2.23964 14.4424 1.81808 13.9999 1.83106 13.4669C1.83129 13.4581 1.83163 13.4494 1.83205 13.4405V10.3465C1.83205 9.77721 2.22808 9.25738 2.77264 9.25738H4.05976V14.4554ZM11.7083 18.5396C11.434 18.837 11.0485 19.0073 10.6439 19.0099C9.83861 18.9971 9.18508 18.3545 9.15879 17.5495C9.15845 16.7429 9.81203 16.0888 10.6186 16.0885C11.4251 16.0882 12.0792 16.7417 12.0796 17.5483C12.0796 17.5487 12.0796 17.5491 12.0796 17.5495C12.1002 17.917 11.9654 18.2763 11.7083 18.5396ZM18.1687 13.6881C18.1687 14.3564 17.5251 14.4554 17.2281 14.4554H16.1885V9.25743H17.2281C17.7726 9.25743 18.1687 10.0248 18.1687 10.594V13.6881Z" fill="black" fill-opacity="0.4"/>
</svg>

<svg width="20" height="20" viewBox="0 0 20 20" fill="none" xmlns="http://www.w3.org/2000/svg"><path d="M17.228 8.267h-.05V7.054a7.054 7.054 0 00-14.108 0v1.213h-.297c-1.09 0-1.931.966-1.931 2.08v3.094a1.956 1.956 0 001.93 2.004h1.832a.47.47 0 00.446-.52V8.862c0-.297-.173-.594-.446-.594H4.06V7.054a6.064 6.064 0 0112.129 0v1.213h-.545c-.272 0-.446.297-.446.594v6.065a.47.47 0 00.446.52h.57l-.05.074a3.91 3.91 0 01-3.144 1.56 2.45 2.45 0 00-4.851.47A2.475 2.475 0 0010.644 20a2.55 2.55 0 001.782-.767c.317-.325.525-.74.594-1.189a4.9 4.9 0 003.936-1.955l.47-.693c1.064-.074 1.733-.743 1.733-1.708v-3.094c0-1.064-.792-2.327-1.93-2.327zM4.06 14.455H2.773a.965.965 0 01-.941-1.014v-3.095c0-.569.396-1.089.94-1.089H4.06v5.198zm7.648 4.085a1.46 1.46 0 01-1.064.47 1.51 1.51 0 01-1.485-1.46 1.46 1.46 0 112.92-.002v.002c.021.367-.114.726-.37.99zm6.46-4.852c0 .668-.643.767-.94.767h-1.04V9.257h1.04c.545 0 .94.768.94 1.337v3.094z" fill="#000" fill-opacity=".4"/></svg>
